Eara-if/Genesis-new-trial-new-knowledge/embodied_data/ep_14/trajectory.csv
step,j1,j2,j3,j4,j5,j6,j7,ee_x,ee_y,ee_z,goal_x,goal_y,goal_z,color_id
0,-1.9401,-1.7630,1.5409,-2.7748,1.2152,1.0628,-0.9083,0.2206,-0.1658,0.2255,0.2254,-0.1615,0.2280,1
8,-1.9658,-1.7630,1.5786,-2.8441,1.3310,1.1708,-0.9155,0.1972,-0.1879,0.2185,0.2268,-0.1609,0.2315,1
16,-1.9355,-1.7630,1.5811,-2.8886,1.4257,1.2409,-0.8907,0.1953,-0.1926,0.2210,0.2282,-0.1603,0.2349,1
24,-1.8579,-1.7629,1.5770,-2.9158,1.4828,1.2864,-0.8403,0.2057,-0.1839,0.2251,0.2296,-0.1596,0.2384,1
32,-1.7991,-1.7629,1.5687,-2.9316,1.5161,1.3157,-0.7998,0.2147,-0.1758,0.2295,0.2309,-0.1590,0.2419,1
40,-1.7609,-1.7629,1.5580,-2.9410,1.5334,1.3343,-0.7722,0.2207,-0.1701,0.2337,0.2323,-0.1584,0.2453,1
48,-1.7364,-1.7629,1.5458,-2.9462,1.5402,1.3457,-0.7532,0.2250,-0.1660,0.2377,0.2337,-0.1577,0.2488,1
56,-1.7209,-1.7629,1.5326,-2.9483,1.5399,1.3525,-0.7400,0.2282,-0.1631,0.2416,0.2351,-0.1571,0.2523,1
64,-1.7115,-1.7629,1.5188,-2.9484,1.5351,1.3559,-0.7306,0.2308,-0.1609,0.2453,0.2365,-0.1564,0.2557,1
72,-1.7062,-1.7629,1.5047,-2.9470,1.5274,1.3569,-0.7237,0.2329,-0.1592,0.2489,0.2379,-0.1558,0.2592,1
80,-1.7032,-1.7629,1.4918,-2.9451,1.5182,1.3571,-0.7188,0.2345,-0.1580,0.2521,0.2346,-0.1580,0.2500,1
88,-1.6963,-1.7616,1.5103,-2.9486,1.5300,1.3655,-0.7151,0.2336,-0.1581,0.2481,0.2352,-0.1576,0.2340,1
96,-1.6868,-1.7567,1.5454,-2.9518,1.5665,1.3794,-0.7089,0.2342,-0.1581,0.2400,0.2358,-0.1573,0.2181,1
104,-1.6766,-1.7489,1.5911,-2.9535,1.6126,1.3969,-0.7013,0.2352,-0.1580,0.2292,0.2364,-0.1569,0.2021,1
112,-1.6676,-1.7392,1.6432,-2.9531,1.6639,1.4173,-0.6933,0.2362,-0.1580,0.2167,0.2370,-0.1565,0.1861,1
120,-1.6606,-1.7281,1.6991,-2.9501,1.7180,1.4399,-0.6854,0.2372,-0.1579,0.2031,0.2376,-0.1561,0.1702,1
128,-1.6564,-1.7165,1.7567,-2.9442,1.7734,1.4641,-0.6781,0.2382,-0.1577,0.1888,0.2382,-0.1558,0.1542,1
136,-1.6551,-1.7051,1.8146,-2.9352,1.8287,1.4893,-0.6717,0.2391,-0.1575,0.1739,0.2388,-0.1554,0.1382,1
0,-0.7697,-0.1847,0.1124,-0.3374,-0.2273,0.0811,-0.1834,0.0562,-0.0553,0.9384,0.0602,-0.0559,0.9429,2
8,-0.7980,-0.1915,0.0728,-0.3514,-0.2458,0.1130,-0.1815,0.0499,-0.0655,0.9409,0.0846,-0.0700,0.9814,2
16,-0.7646,-0.1818,0.0318,-0.3444,-0.2573,0.1293,-0.1585,0.0490,-0.0740,0.9418,0.1091,-0.0842,1.0199,2
24,-0.7236,-0.1810,0.0572,-0.3448,-0.2848,0.1293,-0.1108,0.0538,-0.0706,0.9419,0.1336,-0.0983,1.0585,2
32,-0.7138,-0.1801,0.0997,-0.3462,-0.2940,0.1292,-0.0451,0.0603,-0.0653,0.9419,0.1581,-0.1124,1.0970,2
40,-0.6950,-0.1782,0.1355,-0.3442,-0.3015,0.1291,0.0109,0.0660,-0.0598,0.9420,0.1826,-0.1266,1.1356,2
48,-0.6350,-0.1780,0.1165,-0.3452,-0.3004,0.1289,0.0640,0.0676,-0.0588,0.9418,0.2070,-0.1407,1.1741,2
56,-0.6157,-0.1784,0.0786,-0.3538,-0.2805,0.1350,0.1087,0.0680,-0.0635,0.9416,0.0927,-0.0736,0.9675,2
64,-0.6202,-0.1700,0.0743,-0.3639,-0.2526,0.1413,0.1524,0.0763,-0.0674,0.9405,0.1212,-0.0903,0.9970,2
72,-0.6024,-0.1403,0.0814,-0.3503,-0.2250,0.1369,0.1933,0.0914,-0.0708,0.9378,0.1496,-0.1070,1.0264,2
80,-0.5859,-0.1284,0.0827,-0.3508,-0.2138,0.1376,0.2031,0.0997,-0.0724,0.9363,0.1781,-0.1237,1.0558,2
88,-0.5191,-0.1251,0.0561,-0.3482,-0.2315,0.1379,0.1851,0.1014,-0.0721,0.9362,0.2065,-0.1404,1.0852,2
0,-0.6367,0.6687,0.6018,-2.1697,-0.9859,2.2555,1.6157,0.5073,-0.0112,0.1057,0.5084,-0.0113,0.1060,2
8,-0.7410,0.6858,0.6617,-2.1944,-1.0151,2.3350,1.5630,0.5059,-0.0204,0.1085,0.5143,-0.0098,0.1106,2
16,-0.8069,0.7113,0.7022,-2.1967,-1.0186,2.3819,1.5041,0.5085,-0.0256,0.1099,0.5202,-0.0083,0.1152,2
24,-0.8457,0.7368,0.7354,-2.1887,-1.0227,2.3871,1.4779,0.5117,-0.0266,0.1107,0.5261,-0.0068,0.1198,2
32,-0.8708,0.7607,0.7639,-2.1777,-1.0272,2.3810,1.4662,0.5154,-0.0250,0.1115,0.5320,-0.0053,0.1244,2
40,-0.8864,0.7836,0.7906,-2.1657,-1.0305,2.3885,1.4606,0.5211,-0.0191,0.1140,0.5379,-0.0037,0.1290,2
48,-0.8927,0.7994,0.8122,-2.1524,-1.0276,2.4303,1.4547,0.5308,-0.0100,0.1209,0.5438,-0.0022,0.1336,2
56,-0.8940,0.8070,0.8273,-2.1382,-1.0188,2.4420,1.4470,0.5385,-0.0052,0.1271,0.5497,-0.0007,0.1382,2
64,-0.8893,0.8174,0.8234,-2.1311,-1.0247,2.4544,1.4495,0.5406,-0.0038,0.1250,0.5424,-0.0035,0.1180,2
72,-0.8705,0.8439,0.7973,-2.1175,-1.0512,2.4734,1.4637,0.5409,-0.0036,0.1125,0.5446,-0.0027,0.1001,2
80,-0.8462,0.8435,0.7823,-2.1039,-1.0641,2.4797,1.4751,0.5451,-0.0005,0.1117,0.5467,-0.0020,0.0823,2
88,-0.8135,0.8468,0.7671,-2.0840,-1.0649,2.4944,1.4655,0.5520,0.0067,0.1117,0.5489,-0.0012,0.0645,2
96,-0.7755,0.8507,0.7495,-2.0574,-1.0563,2.5001,1.4498,0.5604,0.0139,0.1116,0.5511,-0.0004,0.0467,2
104,-0.7591,0.8579,0.7457,-2.0411,-1.0401,2.4990,1.4534,0.5652,0.0183,0.1114,0.5608,0.0125,0.0937,2
112,-0.7478,0.8566,0.7344,-2.0347,-1.0459,2.5139,1.4700,0.5677,0.0186,0.1114,0.5560,0.0058,0.0650,2
0,0.2014,0.5682,0.1082,-2.2456,-0.4030,1.9143,1.1264,0.4044,0.1078,0.0843,0.4044,0.1080,0.0845,0
10,0.1342,0.4817,0.1107,-2.3586,-0.4344,2.0173,1.2881,0.3916,0.0798,0.0970,0.3925,0.0980,0.1043,0
20,0.0477,0.3822,0.1333,-2.5213,-0.4340,2.2707,1.3326,0.3702,0.0648,0.1049,0.3806,0.0880,0.1241,0
30,-0.0339,0.3144,0.1668,-2.6541,-0.4156,2.5375,1.3085,0.3540,0.0606,0.1118,0.3687,0.0781,0.1439,0
40,-0.1063,0.2387,0.2320,-2.7464,-0.3400,2.7919,1.2368,0.3550,0.0689,0.1351,0.3568,0.0681,0.1637,0
50,-0.1750,0.1451,0.3085,-2.8148,-0.2140,2.9405,1.1248,0.3576,0.0682,0.1652,0.3567,0.0684,0.1594,0
60,-0.0872,0.2047,0.2036,-2.8064,-0.1442,3.0059,1.0712,0.3599,0.0587,0.1502,0.3530,0.0652,0.1256,0
70,0.0473,0.3188,0.0694,-2.7893,-0.1771,3.1000,1.1083,0.3542,0.0597,0.1191,0.3494,0.0620,0.0919,0
80,0.1247,0.3567,-0.0037,-2.7908,-0.2027,3.1781,1.1341,0.3524,0.0613,0.1115,0.3521,0.0610,0.1088,0
90,0.1377,0.3616,-0.0170,-2.7857,-0.2106,3.1850,1.1308,0.3544,0.0615,0.1112,0.3490,0.0600,0.0839,0
0,0.3431,0.4518,1.5297,-0.3016,-0.5306,0.1593,0.4128,0.2360,0.2688,0.8404,0.2413,0.2667,0.8431,2
8,0.3284,0.5814,1.9732,-0.4199,-0.6920,0.2191,0.5675,0.2229,0.3047,0.8335,0.2747,0.2958,0.8517,2
16,0.3414,0.6777,2.2553,-0.5171,-0.8334,0.2908,0.7349,0.2100,0.3205,0.8386,0.3081,0.3250,0.8604,2
24,0.3494,0.7082,2.3889,-0.5169,-0.9408,0.3670,0.9197,0.2150,0.3203,0.8510,0.3415,0.3541,0.8690,2
32,0.3318,0.6923,2.3812,-0.4903,-1.0122,0.4332,1.0958,0.2300,0.3211,0.8575,0.3748,0.3832,0.8777,2
40,0.3129,0.6623,2.2865,-0.5006,-1.0647,0.4916,1.2562,0.2394,0.3320,0.8573,0.4082,0.4124,0.8863,2
48,0.3140,0.6582,2.2030,-0.4950,-1.0967,0.5390,1.4154,0.2577,0.3446,0.8496,0.4416,0.4415,0.8950,2
56,0.3223,0.6528,2.1170,-0.4943,-1.1241,0.5736,1.5658,0.2723,0.3563,0.8411,0.2924,0.3639,0.8409,2
64,0.3327,0.6094,1.9538,-0.4786,-1.1314,0.6127,1.6858,0.2861,0.3620,0.8373,0.3296,0.3836,0.8324,2
72,0.3294,0.5296,1.6900,-0.4642,-1.1128,0.6383,1.7681,0.3074,0.3498,0.8378,0.3668,0.4033,0.8240,2
80,0.3398,0.4528,1.3908,-0.4727,-1.0723,0.6633,1.8208,0.3297,0.3316,0.8388,0.4039,0.4230,0.8155,2
88,0.3669,0.4028,1.1154,-0.5047,-1.0077,0.6942,1.8471,0.3527,0.3190,0.8333,0.4411,0.4427,0.8071,2
0,-0.6984,-0.0514,0.4935,-0.6451,0.0481,0.2496,0.3440,0.2610,-0.0352,0.8850,0.2587,-0.0326,0.8857,2
8,-0.7784,-0.1020,0.4716,-0.7746,0.0747,0.3793,0.4028,0.2807,-0.0537,0.8758,0.2646,-0.0274,0.8861,2
16,-0.8065,-0.1701,0.4412,-0.8812,0.1151,0.5015,0.4282,0.2878,-0.0540,0.8737,0.2706,-0.0222,0.8865,2
24,-0.8158,-0.2345,0.4259,-0.9440,0.1451,0.5833,0.4442,0.2844,-0.0423,0.8784,0.2765,-0.0170,0.8869,2
32,-0.8187,-0.2730,0.4226,-0.9790,0.1653,0.6347,0.4646,0.2828,-0.0321,0.8815,0.2825,-0.0117,0.8873,2
40,-0.8197,-0.2926,0.4273,-0.9963,0.1802,0.6687,0.4881,0.2838,-0.0240,0.8835,0.2884,-0.0065,0.8877,2
48,-0.8198,-0.2992,0.4388,-1.0010,0.1895,0.6912,0.5126,0.2866,-0.0170,0.8847,0.2944,-0.0013,0.8881,2
56,-0.8199,-0.3210,0.4330,-1.0367,0.1956,0.7196,0.5232,0.2879,-0.0149,0.8821,0.2884,-0.0134,0.8697,2
64,-0.8181,-0.3605,0.4191,-1.1066,0.2034,0.7608,0.5085,0.2894,-0.0134,0.8748,0.2901,-0.0103,0.8523,2
72,-0.8146,-0.4062,0.4067,-1.1899,0.2120,0.8064,0.4925,0.2910,-0.0109,0.8643,0.2917,-0.0072,0.8350,2
80,-0.8100,-0.4534,0.3969,-1.2780,0.2206,0.8532,0.4784,0.2926,-0.0082,0.8516,0.2933,-0.0041,0.8177,2
88,-0.8046,-0.4997,0.3900,-1.3664,0.2292,0.8997,0.4667,0.2942,-0.0053,0.8374,0.2949,-0.0010,0.8003,2
