Eara-if/Genesis-new-trial-new-knowledge/embodied_data/ep_12/trajectory.csv
step,j1,j2,j3,j4,j5,j6,j7,ee_x,ee_y,ee_z,goal_x,goal_y,goal_z,color_id
0,-2.4409,-1.7494,0.1590,-2.8602,0.1385,1.0796,-1.2051,-0.0241,-0.0749,0.4892,-0.0201,-0.0741,0.4919,2
8,-2.4360,-1.7426,0.1507,-2.8986,0.1406,1.1977,-1.3961,-0.0396,-0.0851,0.4842,-0.0162,-0.0833,0.4980,2
16,-2.4069,-1.7336,0.1572,-2.8830,0.1559,1.2680,-1.5440,-0.0390,-0.0936,0.4962,-0.0124,-0.0924,0.5041,2
24,-2.4033,-1.7200,0.1731,-2.8581,0.1792,1.2987,-1.6520,-0.0349,-0.1003,0.5075,-0.0085,-0.1016,0.5101,2
32,-2.4163,-1.7037,0.1948,-2.8329,0.2071,1.2933,-1.7228,-0.0292,-0.1057,0.5146,-0.0046,-0.1107,0.5162,2
40,-2.4393,-1.6862,0.2195,-2.8071,0.2372,1.2537,-1.7586,-0.0218,-0.1098,0.5178,-0.0007,-0.1199,0.5223,2
48,-2.4673,-1.6683,0.2454,-2.7808,0.2680,1.2067,-1.7615,-0.0141,-0.1142,0.5200,0.0032,-0.1291,0.5283,2
56,-2.4949,-1.6494,0.2707,-2.7540,0.2977,1.1747,-1.7338,-0.0075,-0.1203,0.5237,0.0071,-0.1382,0.5344,2
64,-2.5173,-1.6287,0.2944,-2.7269,0.3251,1.1539,-1.6916,-0.0019,-0.1274,0.5282,0.0110,-0.1474,0.5405,2
72,-2.5348,-1.6064,0.3166,-2.6996,0.3503,1.1409,-1.6596,0.0032,-0.1354,0.5332,0.0149,-0.1565,0.5466,2
80,-2.5487,-1.5843,0.3364,-2.6733,0.3734,1.1331,-1.6349,0.0078,-0.1434,0.5382,0.0075,-0.1431,0.5359,2
88,-2.5518,-1.5912,0.3426,-2.6828,0.3829,1.1306,-1.6252,0.0083,-0.1442,0.5342,0.0090,-0.1460,0.5204,2
96,-2.5505,-1.6069,0.3556,-2.7043,0.3949,1.1330,-1.6180,0.0090,-0.1454,0.5261,0.0104,-0.1489,0.5050,2
104,-2.5459,-1.6275,0.3741,-2.7325,0.4127,1.1385,-1.6114,0.0101,-0.1473,0.5154,0.0119,-0.1518,0.4895,2
112,-2.5384,-1.6514,0.3973,-2.7648,0.4350,1.1459,-1.6052,0.0115,-0.1496,0.5031,0.0134,-0.1547,0.4741,2
120,-2.5282,-1.6771,0.4247,-2.7995,0.4614,1.1543,-1.5988,0.0130,-0.1523,0.4897,0.0148,-0.1576,0.4586,2
128,-2.5154,-1.7038,0.4562,-2.8355,0.4915,1.1632,-1.5919,0.0146,-0.1550,0.4756,0.0163,-0.1605,0.4431,2
136,-2.4913,-1.7248,0.4896,-2.8729,0.5220,1.1777,-1.5766,0.0159,-0.1581,0.4608,0.0178,-0.1635,0.4277,2
0,-1.2645,-0.4519,-0.1148,-0.5537,-0.3029,0.0219,0.3453,-0.0617,0.0181,0.9284,-0.0611,0.0072,0.9337,1
8,-1.6783,-0.4897,-0.1045,-0.5271,-0.4226,0.0364,0.4462,-0.0532,0.0748,0.9283,-0.0719,-0.0247,0.9726,1
16,-2.0013,-0.5137,-0.0812,-0.4810,-0.5211,0.0680,0.5121,-0.0182,0.1148,0.9296,-0.0827,-0.0566,1.0115,1
24,-2.2229,-0.5150,-0.1194,-0.4147,-0.5888,0.0986,0.5444,0.0113,0.1427,0.9294,-0.0934,-0.0886,1.0505,1
32,-2.3657,-0.4845,-0.1718,-0.3184,-0.6502,0.1211,0.5458,0.0347,0.1586,0.9291,-0.1042,-0.1205,1.0894,1
40,-2.4549,-0.4373,-0.2169,-0.2458,-0.6963,0.1316,0.5322,0.0437,0.1592,0.9301,-0.1150,-0.1525,1.1284,1
48,-2.4746,-0.3957,-0.2383,-0.2369,-0.7335,0.1392,0.4977,0.0297,0.1512,0.9341,-0.1258,-0.1844,1.1673,1
56,-2.4401,-0.3614,-0.2020,-0.2762,-0.7577,0.1580,0.4853,-0.0019,0.1306,0.9421,0.0001,0.0907,0.9606,1
64,-2.3096,-0.3311,-0.1239,-0.3270,-0.7618,0.1651,0.5012,-0.0397,0.0937,0.9482,-0.0308,0.0230,0.9901,1
72,-2.1015,-0.3062,-0.0665,-0.3436,-0.7391,0.1566,0.4969,-0.0618,0.0553,0.9497,-0.0616,-0.0446,1.0196,1
80,-1.8385,-0.2667,-0.0306,-0.3324,-0.6971,0.1475,0.4630,-0.0713,0.0095,0.9497,-0.0925,-0.1123,1.0490,1
88,-1.6174,-0.2365,-0.0215,-0.3323,-0.6317,0.1491,0.4001,-0.0661,-0.0302,0.9491,-0.1233,-0.1799,1.0785,1
0,-0.7058,0.5927,0.5850,-2.2992,-0.9346,2.3449,1.7300,0.4684,-0.0345,0.1063,0.4696,-0.0352,0.1065,2
8,-0.8092,0.6094,0.6394,-2.3214,-0.9894,2.4300,1.6833,0.4671,-0.0436,0.1087,0.4768,-0.0399,0.1110,2
16,-0.8829,0.6366,0.6827,-2.3211,-1.0167,2.4718,1.5479,0.4696,-0.0503,0.1100,0.4840,-0.0446,0.1156,2
24,-0.9301,0.6635,0.7168,-2.3108,-1.0262,2.4783,1.4666,0.4735,-0.0541,0.1108,0.4912,-0.0494,0.1201,2
32,-0.9633,0.6884,0.7435,-2.2960,-1.0278,2.4791,1.4208,0.4788,-0.0569,0.1118,0.4984,-0.0541,0.1246,2
40,-0.9862,0.7092,0.7649,-2.2768,-1.0237,2.5096,1.3899,0.4891,-0.0577,0.1167,0.5056,-0.0588,0.1292,2
48,-1.0006,0.7210,0.7812,-2.2568,-1.0124,2.5283,1.3634,0.4993,-0.0597,0.1230,0.5128,-0.0635,0.1337,2
56,-1.0104,0.7283,0.7940,-2.2367,-0.9974,2.5267,1.3390,0.5078,-0.0634,0.1283,0.5200,-0.0682,0.1383,2
64,-1.0074,0.7388,0.7878,-2.2263,-1.0004,2.5326,1.3340,0.5103,-0.0653,0.1262,0.5122,-0.0655,0.1189,2
72,-0.9856,0.7668,0.7583,-2.2109,-1.0299,2.5492,1.3508,0.5108,-0.0657,0.1138,0.5146,-0.0666,0.1009,2
80,-0.9588,0.7673,0.7370,-2.1982,-1.0534,2.5598,1.3650,0.5145,-0.0643,0.1116,0.5170,-0.0676,0.0828,2
88,-0.9248,0.7620,0.7107,-2.1803,-1.0821,2.5808,1.3359,0.5215,-0.0631,0.1125,0.5194,-0.0686,0.0648,2
96,-0.8845,0.7608,0.6807,-2.1544,-1.1008,2.6054,1.2594,0.5311,-0.0613,0.1134,0.5218,-0.0696,0.0467,2
104,-0.8676,0.7711,0.6734,-2.1381,-1.0803,2.6216,1.1800,0.5374,-0.0578,0.1129,0.5322,-0.0631,0.0953,2
112,-0.8464,0.7651,0.6478,-2.1260,-1.0406,2.6318,1.1712,0.5415,-0.0631,0.1127,0.5271,-0.0667,0.0658,2
0,0.1602,0.6376,0.3033,-2.1092,-0.4720,1.8848,1.1464,0.4254,0.1935,0.0899,0.4256,0.1930,0.0895,0
10,0.1062,0.5417,0.3088,-2.2330,-0.5656,1.9544,1.3897,0.4140,0.1622,0.1053,0.4159,0.1830,0.1081,0
20,0.0157,0.4553,0.3367,-2.3908,-0.5479,2.2074,1.5635,0.3944,0.1467,0.1095,0.4062,0.1730,0.1267,0
30,-0.0627,0.4046,0.3653,-2.4995,-0.5527,2.4469,1.5850,0.3844,0.1404,0.1143,0.3966,0.1630,0.1453,0
40,-0.1344,0.3430,0.4221,-2.5786,-0.5129,2.6611,1.5455,0.3827,0.1474,0.1345,0.3869,0.1530,0.1638,0
50,-0.2061,0.2661,0.4929,-2.6418,-0.4274,2.8045,1.4692,0.3835,0.1500,0.1614,0.3829,0.1500,0.1561,0
60,-0.1231,0.3174,0.3899,-2.6358,-0.3988,2.8857,1.4511,0.3867,0.1449,0.1453,0.3813,0.1479,0.1232,0
70,0.0180,0.4044,0.2347,-2.6148,-0.4741,2.9739,1.5257,0.3836,0.1445,0.1160,0.3797,0.1458,0.0902,0
80,0.1342,0.4176,0.1183,-2.6123,-0.5650,3.0362,1.5962,0.3816,0.1474,0.1115,0.3816,0.1470,0.1088,0
90,0.1355,0.4236,0.1127,-2.6047,-0.5927,3.0461,1.6089,0.3836,0.1483,0.1112,0.3798,0.1454,0.0834,0
0,-0.1410,0.4803,1.5256,-0.0737,-0.4102,0.2013,0.3860,0.3385,0.0716,0.8523,0.3387,0.0718,0.8590,1
8,-0.1460,0.5912,1.7781,-0.1193,-0.5322,0.3084,0.5019,0.3877,0.0906,0.8316,0.3958,0.0864,0.8913,1
16,-0.1294,0.6737,1.8830,-0.1783,-0.6250,0.3940,0.6353,0.4256,0.1160,0.8103,0.4529,0.1011,0.9235,1
24,-0.1511,0.7309,1.8782,-0.3037,-0.6922,0.4695,0.7625,0.4574,0.1433,0.7861,0.5100,0.1158,0.9558,1
32,-0.1914,0.7724,1.8048,-0.4668,-0.7413,0.5467,0.8697,0.4889,0.1711,0.7513,0.5671,0.1305,0.9880,1
40,-0.2051,0.7890,1.6626,-0.5856,-0.7730,0.6117,0.9670,0.5210,0.1903,0.7070,0.6242,0.1452,1.0202,1
48,-0.2134,0.7678,1.4622,-0.6769,-0.7860,0.6828,1.0384,0.5531,0.1912,0.6641,0.6813,0.1598,1.0525,1
56,-0.2296,0.7353,1.2998,-0.7675,-0.7791,0.7608,1.1016,0.5772,0.1834,0.6304,0.5798,0.1855,0.7131,1
64,-0.2087,0.6951,1.1103,-0.7985,-0.7505,0.8434,1.1580,0.6005,0.1658,0.6097,0.6062,0.1797,0.7745,1
72,-0.1574,0.6529,0.8830,-0.7852,-0.6977,0.8988,1.1970,0.6191,0.1358,0.6023,0.6325,0.1740,0.8360,1
80,-0.1182,0.6278,0.6953,-0.7392,-0.6191,0.9200,1.2161,0.6285,0.1000,0.6092,0.6588,0.1682,0.8974,1
88,-0.0736,0.6239,0.5100,-0.6866,-0.5214,0.9168,1.2072,0.6340,0.0681,0.6119,0.6851,0.1624,0.9588,1
0,-1.0409,-0.6285,0.4860,-1.1683,0.3189,0.2516,0.0820,0.1803,0.0954,0.8494,0.1763,0.0952,0.8521,1
8,-1.1621,-0.7115,0.4822,-1.2460,0.3793,0.3520,0.1067,0.1982,0.0951,0.8394,0.1788,0.0939,0.8519,1
16,-1.2033,-0.7676,0.4375,-1.2820,0.4202,0.4211,0.1301,0.1948,0.0935,0.8421,0.1813,0.0927,0.8516,1
24,-1.2235,-0.8044,0.4068,-1.3053,0.4474,0.4691,0.1471,0.1913,0.0936,0.8447,0.1837,0.0914,0.8514,1
32,-1.2371,-0.8276,0.3877,-1.3211,0.4656,0.5027,0.1592,0.1894,0.0934,0.8465,0.1862,0.0902,0.8512,1
40,-1.2469,-0.8419,0.3764,-1.3318,0.4780,0.5267,0.1677,0.1889,0.0928,0.8477,0.1886,0.0889,0.8510,1
48,-1.2543,-0.8504,0.3701,-1.3389,0.4866,0.5441,0.1735,0.1893,0.0920,0.8485,0.1911,0.0877,0.8508,1
56,-1.2573,-0.8678,0.3649,-1.3629,0.4919,0.5620,0.1736,0.1896,0.0919,0.8457,0.1898,0.0912,0.8332,1
64,-1.2561,-0.8994,0.3606,-1.4110,0.4925,0.5860,0.1648,0.1901,0.0923,0.8381,0.1902,0.0903,0.8156,1
72,-1.2526,-0.9384,0.3577,-1.4728,0.4909,0.6133,0.1516,0.1907,0.0925,0.8273,0.1906,0.0894,0.7981,1
80,-1.2478,-0.9813,0.3563,-1.5416,0.4889,0.6420,0.1364,0.1913,0.0925,0.8143,0.1910,0.0885,0.7805,1
88,-1.2424,-1.0260,0.3564,-1.6137,0.4874,0.6710,0.1209,0.1919,0.0922,0.7998,0.1914,0.0876,0.7630,1
